src/assets/logos/white.svg

<svg viewBox="0 0 1280 1280" xmlns="http://www.w3.org/2000/svg" fill-rule="evenodd" clip-rule="evenodd" stroke-linejoin="round" stroke-miterlimit="2">
  <path d="M1087.51 381.632c38.51 66.711 41.63 147.527 14.31 229.984-39.35 118.772-142.493 241.413-289.744 326.428-147.251 85.016-305.031 113.016-427.566 87.716-85.071-17.57-153.501-60.681-192.017-127.392-38.515-66.711-41.632-147.527-14.312-229.984 39.352-118.772 142.492-241.413 289.743-326.428 147.251-85.016 305.031-113.017 427.566-87.711 85.071 17.569 153.5 60.676 192.02 127.387zM774.623 913.174l-24.206-41.926c-116.449 63.076-236.87 87.443-329.542 74.145-61.241-8.788-110.753-33.948-141.365-74.17l-41.485 23.951c34.384 47.519 89.007 77.866 154.575 91.407 109.732 22.659 249.474-1.486 382.023-73.407zM494.942 428.752l-24.206-41.926c-128.56 78.83-219.344 187.776-254.584 294.138-21.057 63.554-22.087 126.033 1.873 179.569l41.485-23.951c-19.527-46.622-16.561-102.08 6.45-159.511 34.819-86.905 116.132-179.009 228.982-248.319zm86.423 149.689l-66.417-115.038c-104.03 64.075-179.716 148.321-211.858 228.545-17.875 44.614-22.16 87.758-8.572 124.422l263.928-152.379c-8.977-30.451-.079-63.664 22.919-85.55zm82.629 143.118c-30.449 8.974-63.661.074-85.548-22.926L314.518 851.011c24.958 30.1 64.464 47.961 112.039 54.788 85.547 12.276 196.349-11.147 303.854-69.202l-66.417-115.038zm377.976-336.733c-34.38-47.519-89.002-77.866-154.57-91.407-109.732-22.662-249.474 1.486-382.023 73.407l24.206 41.926c116.449-63.076 236.87-87.443 329.542-74.145 61.241 8.788 110.753 33.948 141.365 74.17l41.48-23.951zm20 34.641l-41.48 23.951c19.53 46.622 16.56 102.08-6.45 159.511-34.819 86.905-116.132 179.009-228.982 248.319l24.206 41.926c128.56-78.83 219.346-187.776 254.586-294.138 21.05-63.554 22.08-126.033-1.88-179.569zm-360.416 161.9l263.928-152.378c-24.958-30.1-64.464-47.961-112.039-54.788-85.547-12.276-196.349 11.147-303.854 69.202l66.417 115.038c30.449-8.974 63.661-.074 85.548 22.926zm20 34.642c8.977 30.451.079 63.664-22.919 85.55l66.417 115.038c104.03-64.075 179.716-148.321 211.858-228.545 17.875-44.614 22.16-87.758 8.572-124.422L721.554 616.009z" fill="#fff"/>
</svg>

<?xml version="1.0" encoding="UTF-8" standalone="no"?>
<!DOCTYPE svg PUBLIC "-//W3C//DTD SVG 1.1//EN" "http://www.w3.org/Graphics/SVG/1.1/DTD/svg11.dtd">
<svg width="100%" height="100%" viewBox="0 0 1280 1280" version="1.1" xmlns="http://www.w3.org/2000/svg" xmlns:xlink="http://www.w3.org/1999/xlink" xml:space="preserve" xmlns:serif="http://www.serif.com/" style="fill-rule:evenodd;clip-rule:evenodd;stroke-linejoin:round;stroke-miterlimit:2;">
    <rect id="W" x="0" y="0" width="1280" height="1280"/>
    <g id="W1" serif:id="W">
        <path id="W-Logo" serif:id="W Logo" d="M1087.51,381.632C1126.02,448.343 1129.14,529.159 1101.82,611.616C1062.47,730.388 959.327,853.029 812.076,938.044C664.825,1023.06 507.045,1051.06 384.51,1025.76C299.439,1008.19 231.009,965.079 192.493,898.368C153.978,831.657 150.861,750.841 178.181,668.384C217.533,549.612 320.673,426.971 467.924,341.956C615.175,256.94 772.955,228.939 895.49,254.245C980.561,271.814 1048.99,314.921 1087.51,381.632ZM774.623,913.174L750.417,871.248C633.968,934.324 513.547,958.691 420.875,945.393C359.634,936.605 310.122,911.445 279.51,871.223L238.025,895.174C272.409,942.693 327.032,973.04 392.6,986.581C502.332,1009.24 642.074,985.095 774.623,913.174ZM494.942,428.752L470.736,386.826C342.176,465.656 251.392,574.602 216.152,680.964C195.095,744.518 194.065,806.997 218.025,860.533L259.51,836.582C239.983,789.96 242.949,734.502 265.96,677.071C300.779,590.166 382.092,498.062 494.942,428.752ZM581.365,578.441L514.948,463.403C410.918,527.478 335.232,611.724 303.09,691.948C285.215,736.562 280.93,779.706 294.518,816.37L558.446,663.991C549.469,633.54 558.367,600.327 581.365,578.441ZM663.994,721.559C633.545,730.533 600.333,721.633 578.446,698.633L314.518,851.011C339.476,881.111 378.982,898.972 426.557,905.799C512.104,918.075 622.906,894.652 730.411,836.597L663.994,721.559ZM1041.97,384.826C1007.59,337.307 952.968,306.96 887.4,293.419C777.668,270.757 637.926,294.905 505.377,366.826L529.583,408.752C646.032,345.676 766.453,321.309 859.125,334.607C920.366,343.395 969.878,368.555 1000.49,408.777L1041.97,384.826ZM1061.97,419.467L1020.49,443.418C1040.02,490.04 1037.05,545.498 1014.04,602.929C979.221,689.834 897.908,781.938 785.058,851.248L809.264,893.174C937.824,814.344 1028.61,705.398 1063.85,599.036C1084.9,535.482 1085.93,473.003 1061.97,419.467ZM701.554,581.367L965.482,428.989C940.524,398.889 901.018,381.028 853.443,374.201C767.896,361.925 657.094,385.348 549.589,443.403L616.006,558.441C646.455,549.467 679.667,558.367 701.554,581.367ZM721.554,616.009C730.531,646.46 721.633,679.673 698.635,701.559L765.052,816.597C869.082,752.522 944.768,668.276 976.91,588.052C994.785,543.438 999.07,500.294 985.482,463.63L721.554,616.009Z" style="fill:#fff;"/>
    </g>
</svg>
